X:138
T:Paddy In London (j)
B:NFID.231c ("untitled jig")
138paddy_L
S:PT
L:1/8
M:6/8
R:jig
Q:320
K:Am
g^f|eAA ^fAA|g^fg age|dBG GFG|BAG Bcd|
eAA ^fAA|g^fg age|dBd gdB|ABA A:|
zd|e^fg a2a|aba age|de^f g2g|gba ged|
e^fg a2a|aba age|dBB gBB|ABA A:|

%%%

